src/assets/icons/payment2-icon.svg

<svg width="24" height="24" viewBox="0 0 24 24" fill="none" xmlns="http://www.w3.org/2000/svg">
<path d="M18.17 5.9C17.7721 5.35357 17.1089 5 16.3684 5H4.21053C2.99474 5 2 5.96429 2 7.14286V17.8571C2 18.4255 2.23289 18.9705 2.64745 19.3724C3.062 19.7742 3.62426 20 4.21053 20H16.3684C17.1089 20 17.7721 19.6357 18.17 19.0893L23 12.5L18.17 5.9ZM8.02368 8.24643C8.88579 8.24643 9.59316 8.93214 9.59316 9.76786C9.59316 10.6036 8.88579 11.2893 8.02368 11.2893C7.16158 11.2893 6.45421 10.6036 6.45421 9.76786C6.45421 8.93214 7.16158 8.24643 8.02368 8.24643ZM13.6605 16.7536C12.7984 16.7536 12.0911 16.0679 12.0911 15.2321C12.0911 14.3964 12.7984 13.7107 13.6605 13.7107C14.5226 13.7107 15.23 14.3964 15.23 15.2321C15.23 16.0679 14.5226 16.7536 13.6605 16.7536ZM7.74737 16.7857L6.42105 15.5L13.9368 8.21429L15.2632 9.5L7.74737 16.7857Z" fill="#0071DC"/>
</svg>

<svg xmlns="http://www.w3.org/2000/svg" width="24" height="24" fill="none"><path fill="#0071DC" d="M18.17 5.9a2.23 2.23 0 0 0-1.802-.9H4.211C2.995 5 2 5.964 2 7.143v10.714c0 .569.233 1.114.647 1.515.415.402.977.628 1.564.628h12.157c.74 0 1.404-.364 1.802-.91L23 12.5zM8.024 8.246c.862 0 1.57.686 1.57 1.522s-.708 1.521-1.57 1.521-1.57-.685-1.57-1.521.708-1.522 1.57-1.522m5.637 8.508c-.863 0-1.57-.686-1.57-1.522s.707-1.521 1.57-1.521c.862 0 1.569.685 1.569 1.521s-.707 1.522-1.57 1.522m-5.914.032L6.421 15.5l7.516-7.286L15.263 9.5z"/></svg>
